shared/images/iconfont/20-kb-iconfont-compose-16.svg

<?xml version="1.0" encoding="UTF-8"?>
<svg width="16px" height="16px" viewBox="0 0 16 16" version="1.1" xmlns="http://www.w3.org/2000/svg" xmlns:xlink="http://www.w3.org/1999/xlink">
    <!-- Generator: sketchtool 54.1 (76490) - https://sketchapp.com -->
    <title>93B1071D-AD96-40EC-ACE7-924389378CAA</title>
    <desc>Created with sketchtool.</desc>
    <g id="Symbols" stroke="none" stroke-width="1" fill="none" fill-rule="evenodd">
        <g id="20-kb-iconfont-compose-16">
            <g>
                <rect id="icon-area" opacity="0" x="0" y="0" width="16" height="16"></rect>
                <path d="M7.99837298,0 C12.3746408,0 15.921746,3.58123032 15.921746,7.99960022 C15.921746,12.4179701 12.3746408,16 7.99837298,16 C6.41686615,16 3.28869791,15.9936035 1.81647898,15.9936035 C0.608768455,15.9936035 0.108261536,15.7633302 0.108261536,14.9829594 C0.108261536,14.10904 1.99624966,13.4086253 1.0981882,11.9350357 C0.405239534,10.7980611 0.075,9.43001349 0.075,7.99960022 C0.075,3.58123032 3.62210521,0 7.99837298,0 Z M11.2,7.2 L8.8,7.2 L8.8,4.8 C8.8,4.3581722 8.4418278,4 8,4 C7.5581722,4 7.2,4.3581722 7.2,4.8 L7.2,7.2 L4.8,7.2 C4.3581722,7.2 4,7.5581722 4,8 C4,8.4418278 4.3581722,8.8 4.8,8.8 L7.2,8.8 L7.2,11.2 C7.2,11.6418278 7.5581722,12 8,12 C8.4418278,12 8.8,11.6418278 8.8,11.2 L8.8,8.8 L11.2,8.8 C11.6418278,8.8 12,8.4418278 12,8 C12,7.5581722 11.6418278,7.2 11.2,7.2 Z" id="Combined-Shape" fill="#000000"></path>
            </g>
        </g>
    </g>
</svg>

<svg xmlns="http://www.w3.org/2000/svg" width="16" height="16" viewBox="0 0 16 16">
    <path fill="#000" fill-rule="evenodd" d="M7.998 0c4.377 0 7.924 3.581 7.924 8 0 4.418-3.547 8-7.924 8-1.581 0-4.71-.006-6.182-.006-1.207 0-1.708-.23-1.708-1.011 0-.874 1.888-1.574.99-3.048C.405 10.798.075 9.43.075 8c0-4.419 3.547-8 7.923-8zM11.2 7.2H8.8V4.8a.8.8 0 1 0-1.6 0v2.4H4.8a.8.8 0 1 0 0 1.6h2.4v2.4a.8.8 0 1 0 1.6 0V8.8h2.4a.8.8 0 1 0 0-1.6z"/>
</svg>
